contributed-vectors/lifehacker.svg

<svg width="192" height="192" viewBox="0 0 192 192" fill="none" xmlns="http://www.w3.org/2000/svg">
<rect x="20" y="20" width="152" height="152" rx="12" fill="#F8C18C"/>
<path fill-rule="evenodd" clip-rule="evenodd" d="M109.266 56L101.675 60.3829V62.774H111.53V56H109.266ZM125.29 79.6578C125.29 84.216 128.976 86.3198 131.241 86.3198V73.0445C128.972 73.0445 125.295 75.124 125.295 79.6773L125.29 79.6578ZM108.516 93.9119V85.8864H107.513L100.828 93.907H97.4874V65.4475H103.705V69.7768C103.705 72.728 103.535 77.7293 103.418 81.1967C103.418 81.6009 103.389 81.9856 103.379 82.3411H104.397L108.516 76.9404V65.4475H114.739V93.9119H108.516ZM49.4965 76.3219C49.4965 82.0099 48.7515 87.6541 45.4794 88.8424V94.9589C53.1289 94.1602 55.5051 87.4447 55.5051 77.4274V70.4732H59.6001V93.9216H65.7986V65.4475H49.4965V76.3219ZM143.243 79.6919C143.243 75.1386 139.562 73.0348 137.293 73.0348V86.3393C139.562 86.3393 143.243 84.2452 143.243 79.6919ZM137.298 91.3065C144.115 91.3065 149.534 86.5243 149.534 79.6968C149.534 72.8692 144.095 68.0821 137.298 68.0821V64.1862H131.241V68.0529C124.424 68.0529 119.004 72.8351 119.004 79.6627C119.004 86.4902 124.443 91.2773 131.241 91.2773V94.6862H137.298V91.3065ZM86.4878 65.4475H76.7981L69.207 93.907H75.537L76.7835 88.8911H86.4732L87.7197 93.9021H94.0497L86.4878 65.4475ZM78.1566 83.6608H85.1245L82.2029 71.6517H81.0246L78.1566 83.6608Z" fill="white"/>
<path d="M118.871 118.116H124.91L124.895 112.681H118.871V105.379H126.197V99.7358H112.741V127.995H126.637V122.342H118.871V118.116Z" fill="white"/>
<path d="M96.1303 99.7358V113.566H97.4851L101.651 99.7358H108.072L105.43 108.609C104.801 110.761 103.799 113.87 103.069 116.012C103.746 116.965 104.607 118.126 105.459 119.267C106.015 120.021 106.582 120.766 107.065 121.438V127.995H104.462L97.2577 118.851H96.1303V127.995H89.9999V99.7358H96.1303Z" fill="white"/>
<path d="M51.2723 107.328C50.1304 105.055 48.4563 101.999 47.2031 99.7358L44.4887 99.7406V107.478L48.0353 113.358L44 120.2V128H46.7047L51.2578 119.407H52.4384L56.9914 128H59.6962V120.229L55.6512 113.387L59.1978 107.507V99.7696H56.4979L56.1447 100.413L56.0976 100.499C54.9156 102.655 53.4604 105.309 52.4529 107.328H51.2723Z" fill="white"/>
<path fill-rule="evenodd" clip-rule="evenodd" d="M79.0842 99.7358H69.4555L61.9122 127.995H68.2023L69.441 123.019H79.0696L80.3083 127.99H86.5984L79.0842 99.7358ZM77.7439 117.821H70.8054L73.6795 105.896H74.8166L77.7439 117.821Z" fill="white"/>
<path fill-rule="evenodd" clip-rule="evenodd" d="M139.585 99.3973C137.335 99.3973 134.626 99.6246 133.077 99.7551C133.012 99.7607 132.948 99.7661 132.887 99.7714C132.365 99.816 132.002 99.847 131.872 99.847V127.99H138.119V118.401C139.031 118.552 139.953 118.627 140.877 118.624C146.62 118.624 151.014 114.842 151.014 109.073C151.014 102.507 146.17 99.3973 139.585 99.3973ZM138.134 113.034C138.783 113.267 139.471 113.377 140.161 113.358C142.851 113.358 144.767 111.893 144.777 109.18C144.777 106.351 142.919 104.997 140.161 104.997C139.542 104.997 138.458 104.997 138.134 105.055V113.034Z" fill="white"/>
</svg>

<svg xmlns="http://www.w3.org/2000/svg" width="192" height="192" fill="none"><rect width="152" height="152" x="20" y="20" fill="#F8C18C" rx="12"/><path fill="#fff" fill-rule="evenodd" d="m109.266 56-7.591 4.383v2.391h9.855V56h-2.264Zm16.024 23.658c0 4.558 3.686 6.662 5.951 6.662V73.045c-2.269 0-5.946 2.079-5.946 6.632l-.005-.02Zm-16.774 14.254v-8.026h-1.003l-6.685 8.021h-3.34v-28.46h6.217v4.33c0 2.951-.17 7.952-.287 11.42 0 .404-.029.789-.039 1.144h1.018l4.119-5.4V65.447h6.223v28.464h-6.223Zm-59.02-17.59c0 5.688-.745 11.332-4.017 12.52v6.117c7.65-.799 10.026-7.514 10.026-17.532v-6.954H59.6v23.449H65.8V65.448H49.496v10.874Zm93.747 3.37c0-4.553-3.681-6.657-5.95-6.657v13.304c2.269 0 5.95-2.094 5.95-6.647Zm-5.945 11.615c6.817 0 12.236-4.783 12.236-11.61 0-6.828-5.439-11.615-12.236-11.615v-3.896h-6.057v3.867c-6.817 0-12.237 4.782-12.237 11.61 0 6.827 5.439 11.614 12.237 11.614v3.41h6.057v-3.38Zm-50.81-25.86h-9.69l-7.591 28.46h6.33l1.246-5.016h9.69l1.247 5.011h6.33l-7.562-28.454Zm-8.331 18.214h6.968l-2.922-12.01h-1.178l-2.868 12.01Z" clip-rule="evenodd"/><path fill="#fff" d="M118.871 118.116h6.039l-.015-5.435h-6.024v-7.302h7.326v-5.643h-13.456v28.259h13.896v-5.653h-7.766v-4.226ZM96.13 99.736v13.83h1.355l4.166-13.83h6.421l-2.642 8.873a202.774 202.774 0 0 1-2.361 7.403c.677.953 1.538 2.114 2.39 3.255.556.754 1.123 1.499 1.606 2.171v6.557h-2.603l-7.204-9.144H96.13v9.144H90v-28.26h6.13ZM51.272 107.328c-1.142-2.273-2.816-5.329-4.069-7.592l-2.714.005v7.737l3.546 5.88L44 120.2v7.8h2.705l4.553-8.593h1.18L56.991 128h2.705v-7.771l-4.045-6.842 3.547-5.88V99.77h-2.7l-.353.643-.047.086c-1.182 2.156-2.638 4.81-3.645 6.829h-1.18Z"/><path fill="#fff" fill-rule="evenodd" d="M79.084 99.736h-9.629l-7.543 28.259h6.29l1.239-4.976h9.629l1.238 4.971h6.29l-7.514-28.254Zm-1.34 18.085h-6.939l2.874-11.925h1.138l2.927 11.925ZM139.585 99.397c-2.25 0-4.959.228-6.508.358l-.19.016c-.522.045-.885.076-1.015.076v28.143h6.247v-9.589c.912.151 1.834.226 2.758.223 5.743 0 10.137-3.782 10.137-9.551 0-6.566-4.844-9.676-11.429-9.676Zm-1.451 13.637a5.55 5.55 0 0 0 2.027.324c2.69 0 4.606-1.465 4.616-4.178 0-2.829-1.858-4.183-4.616-4.183-.619 0-1.703 0-2.027.058v7.979Z" clip-rule="evenodd"/></svg>
